img/icon-briefcase.svg

<svg width="48" height="40" viewBox="0 0 48 40" xmlns="http://www.w3.org/2000/svg"><title>Briefcase</title><path d="M42 10h-2V6c0-3.3-2.7-6-6-6H14c-3.3 0-6 2.7-6 6v4H6c-3.3 0-6 2.7-6 6v18c0 3.3 2.7 6 6 6h36c3.3 0 6-2.7 6-6V16c0-3.3-2.7-6-6-6zM12 6c0-1.1.9-2 2-2h20c1.1 0 2 .9 2 2v4H12V6zm-6 8h36c1.1 0 2 .9 2 2v1.6c-2.8 2.4-7.9 4.3-13.8 5V22c0-2.2-1.8-4-4-4h-4.3c-2.2 0-4 1.8-4 4v.6c-6-.8-11-2.6-13.8-5V16c-.1-1.1.8-2 1.9-2zm20.2 14h-4.3v-6h4.3v6zM42 36H6c-1.1 0-2-.9-2-2V22.5c3.5 2.1 8.4 3.5 13.8 4.1V28c0 2.2 1.8 4 4 4h4.3c2.2 0 4-1.8 4-4v-1.4c5.5-.6 10.3-2.1 13.8-4.1V34c.1 1.1-.8 2-1.9 2z" fill="#4A4A4A" fill-rule="evenodd"/></svg>

<?xml version="1.0" encoding="UTF-8" standalone="no"?>
<svg width="48px" height="40px" viewBox="0 0 48 40" version="1.1" xmlns="http://www.w3.org/2000/svg" xmlns:xlink="http://www.w3.org/1999/xlink" xmlns:sketch="http://www.bohemiancoding.com/sketch/ns">
    <!-- Generator: Sketch 3.1.1 (8761) - http://www.bohemiancoding.com/sketch -->
    <title>Briefcase</title>
    <desc>Created with Sketch.</desc>
    <defs></defs>
    <g id="Page-1" stroke="none" stroke-width="1" fill="none" fill-rule="evenodd" sketch:type="MSPage">
        <g id="icon-portfolio" sketch:type="MSLayerGroup" fill="#4A4A4A">
            <path d="M42,10 L40,10 L40,6 C40,2.7 37.3,0 34,0 L14,0 C10.7,0 8,2.7 8,6 L8,10 L6,10 C2.7,10 0,12.7 0,16 L0,34 C0,37.3 2.7,40 6,40 L42,40 C45.3,40 48,37.3 48,34 L48,16 C48,12.7 45.3,10 42,10 L42,10 Z M12,6 C12,4.9 12.9,4 14,4 L34,4 C35.1,4 36,4.9 36,6 L36,10 L12,10 L12,6 L12,6 Z M6,14 L42,14 C43.1,14 44,14.9 44,16 L44,17.6 C41.2,20 36.1,21.9 30.2,22.6 L30.2,22 C30.2,19.8 28.4,18 26.2,18 L21.9,18 C19.7,18 17.9,19.8 17.9,22 L17.9,22.6 C11.9,21.8 6.9,20 4.1,17.6 L4.1,16 C4,14.9 4.9,14 6,14 L6,14 Z M26.2,28 L21.9,28 L21.9,22 L26.2,22 L26.2,28 L26.2,28 Z M42,36 L6,36 C4.9,36 4,35.1 4,34 L4,22.5 C7.5,24.6 12.4,26 17.8,26.6 L17.8,28 C17.8,30.2 19.6,32 21.8,32 L26.1,32 C28.3,32 30.1,30.2 30.1,28 L30.1,26.6 C35.6,26 40.4,24.5 43.9,22.5 L43.9,34 C44,35.1 43.1,36 42,36 L42,36 Z" id="Shape" sketch:type="MSShapeGroup"></path>
        </g>
    </g>
</svg>
